packages/sources/icons/src/vitamix/arrow-up-down-line.svg

<svg width="16" height="16" viewBox="0 0 16 16" xmlns="http://www.w3.org/2000/svg"><path fill-rule="evenodd" clip-rule="evenodd" d="M6.99071 6.24267L7.93337 5.3L4.63337 2L1.33337 5.3L2.27671 6.24267L3.96671 4.552V13.3333H5.30004V4.552L6.99071 6.24267ZM11.3 14L14.6 10.7L13.6574 9.75733L11.9667 11.448V2.66667H10.6334L10.634 11.448L8.94271 9.75733L8.00004 10.7L11.3 14Z"/></svg>

<svg width="16" height="16" xmlns="http://www.w3.org/2000/svg"><path fill-rule="evenodd" clip-rule="evenodd" d="m6.99 6.243.943-.943-3.3-3.3-3.3 3.3.944.943 1.69-1.691v8.781H5.3V4.552l1.69 1.69ZM11.3 14l3.3-3.3-.943-.943-1.69 1.691V2.667h-1.334l.001 8.781-1.691-1.69L8 10.7l3.3 3.3Z"/></svg>
